packages/ffe-icons/icons/filled/md/air_purifier.svg

<svg xmlns="http://www.w3.org/2000/svg" height="24" viewBox="0 -960 960 960" width="24"><path d="M420-340.001q57.749 0 98.874-41.125 41.125-41.125 41.125-98.874 0-57.749-41.125-98.874-41.125-41.125-98.874-41.125-57.749 0-98.874 41.125-41.125 41.125-41.125 98.874 0 57.749 41.125 98.874 41.125 41.125 98.874 41.125ZM420-400q-33 0-56.5-23.5T340-480q0-33 23.5-56.5T420-560q33 0 56.5 23.5T500-480q0 33-23.5 56.5T420-400Zm275.999-90.001q-12.854 0-21.927-8.423-9.073-8.422-9.073-21.576t9.073-21.576q9.073-8.423 21.927-8.423 12.16 0 21.619-5.654 9.458-5.654 15.612-17.731 13.461-26.692 38.154-41.654 24.692-14.961 53.615-14.961 12.749 0 21.374 8.628 8.625 8.629 8.625 21.384 0 12.756-8.625 21.371-8.625 8.615-21.374 8.615-12.693 0-22.385 5.654-9.693 5.654-15.847 17.731-13.461 26.692-37.563 41.654-24.102 14.961-53.205 14.961Zm0 160q-12.854 0-21.927-8.423-9.073-8.422-9.073-21.576t9.073-21.576q9.073-8.423 21.927-8.423 12.16 0 21.619-5.654 9.458-5.654 15.612-17.731 13.461-25.923 37.563-41.269 24.102-15.346 53.206-15.346 12.853 0 21.926 8.423 9.073 8.422 9.073 21.576t-9.073 21.576q-9.073 8.423-21.926 8.423-12.161 0-21.62 5.654-9.458 5.654-15.612 17.731-13.461 26.692-37.563 41.654-24.102 14.961-53.205 14.961Zm-483.69 190q-29.827 0-51.067-21.241-21.241-21.24-21.241-51.067V-680q0-57.749 41.125-98.874 41.125-41.125 98.874-41.125h280q57.749 0 98.874 41.125 41.125 41.125 41.125 98.874v4.616q-6.769 11-14.039 23.192Q678.691-640 664.614-640h-6.153q-15.366 0-25.76 10.394-10.394 10.394-10.394 25.76v287.692q0 15.366 10.394 25.76Q643.095-280 658.461-280h6.153q14.692 0 25.038 10.346 10.347 10.346 10.347 25.038v32.307q0 29.827-21.241 51.067-21.24 21.241-51.067 21.241H212.309Z"/></svg>

<svg xmlns="http://www.w3.org/2000/svg" height="24" viewBox="0 -960 960 960" width="24"><path d="M420-340q57.75 0 98.87-41.13Q560-422.25 560-480q0-57.75-41.13-98.87Q477.75-620 420-620q-57.75 0-98.87 41.13Q280-537.75 280-480q0 57.75 41.13 98.87Q362.25-340 420-340Zm0-60q-33 0-56.5-23.5T340-480q0-33 23.5-56.5T420-560q33 0 56.5 23.5T500-480q0 33-23.5 56.5T420-400Zm276-90q-12.85 0-21.93-8.42Q665-506.85 665-520q0-13.15 9.07-21.58Q683.15-550 696-550q12.16 0 21.62-5.65 9.46-5.66 15.61-17.73 13.46-26.7 38.15-41.66Q796.08-630 825-630q12.75 0 21.37 8.63 8.63 8.63 8.63 21.38 0 12.76-8.63 21.37Q837.75-570 825-570q-12.69 0-22.39 5.65-9.69 5.66-15.84 17.73-13.46 26.7-37.57 41.66Q725.1-490 696-490Zm0 160q-12.85 0-21.93-8.42Q665-346.85 665-360q0-13.15 9.07-21.58Q683.15-390 696-390q12.16 0 21.62-5.65 9.46-5.66 15.61-17.73 13.46-25.93 37.56-41.27Q794.89-470 824-470q12.85 0 21.92 8.42Q855-453.15 855-440q0 13.15-9.08 21.58Q836.85-410 824-410q-12.16 0-21.62 5.65-9.46 5.66-15.61 17.73-13.46 26.7-37.57 41.66Q725.1-330 696-330ZM212.31-140q-29.83 0-51.07-21.24Q140-182.48 140-212.31V-680q0-57.75 41.13-98.87Q222.25-820 280-820h280q57.75 0 98.87 41.13Q700-737.75 700-680v4.62q-6.77 11-14.04 23.19Q678.69-640 664.61-640h-6.15q-15.36 0-25.76 10.39-10.39 10.4-10.39 25.76v287.7q0 15.36 10.39 25.76Q643.1-280 658.46-280h6.15q14.7 0 25.04 10.35Q700-259.31 700-244.62v32.31q0 29.83-21.24 51.07Q657.52-140 627.69-140H212.31Z"/></svg>
